X:424
%%etbk:tnset id:127,pos:1,rep:3x,ant:
%%etbk:wsite http://www.thesession.org/tunes/display/310
%%etbk:color #bfe4ff
%%etbk:pldat 2016-09-03T11:06,2016-08-09T17:47,2016-06-14T17:17,2016-03-30T18:16,2015-04-21T15:53,2015-03-04T16:50,2015-02-17T17:59,2014-09-26T18:12,2014-04-08T17:01,2014-03-14T18:25,2014-02-26T18:26,2013-10-21T18:26,2013-08-28T16:56,2013-05-15T17:21
T: Home Ruler, The
Z: Piano Box Version by Martin Fleischmann
H: Created 2013-02-19 /  Last Modified 2016-03-30
M: 4/4
L: 1/8
R: hornpipe
K: Dmaj
|: "D"!1!D2!2!F!3!A DAF!1!A | !3!d!5!fe!3!d "A"!2!BcdB | "D"!1!A3B !1!A!3!F!1!DE | "A"!3!FD !4!(3G!2!E!1!D !2!B,!4!D!1!A,!2!B,|
"D"!1!D2!2!F!3!A DAF!1!A | !3!d!5!fe!3!d "A"!2!BcdB | "D"!1!A3B "A"!1!A!3!F!2!E!4!G | "D"!3!F2!1!D2 D4 :|
!2!B |: "D"!1!A!4!dd!3!c !1!d2 d!2!f | !4!a!2!f!5!b!2!f !4!a!3!fe!1!d | "A"!2!efe!1!d !2!B!1!A!2!F!1!A | !3!ffe!1!d !2!BBAB |
"D"!1!A!4!dd!3!c !1!d!2!d!1!d!2!f | !4!a!2!f!5!b!2!f !4!a!3!fe!1!d | "A"!2!efe!1!d !2!B!1!A!4!dB | !1!A!3!F!2!EF "D"!1!D4:|


